X: 1682
T: Saçların Tarümar
C: Şekip Ayhan Özışık
O: Turkey
F: http://compmusic.upf.edu/node/140
N: rast--sarki--duyek--saclarin_tarumar--sekip_ayhan_ozisik
N: makam= rast
N: form= sarki
N: usul= duyek = 8/4
M: 8/4
L: 1/16
K: C _1/4B ^f  
Q: 1/4=120
%%MIDI tuningsystem comma53
z2 c4 B2 A4 B4  | AG G6 dc BA G4  | z2 B4 c2 d2 c2 B2 c2  | \
w:  Saç la rın  ta  |  rü *  mar  SAZ  |  göz le rin *  de   | 
d8 G2 B2 d4  | 
w:  nem   SAZ  | 
z2 d2 _7/8e2 f2 e2 d2 c2 d2  | _7/8e6 d2 fe ed e4  | \
w:  A te şe  ben *  zer  |  din  *  SAZ  | 
g2 a4 g2 f4 _7/8e4  | d16  | 
w:  kü le  *  dön müş  |  sün   | 
GA Bc d_7/8e fg ag2f fe ed  | d_7/8e fg ag fe dc BA G4  | 
w:  SAZ  |   | 
z2 c4 B2 A4 B4  | AG G6 dc BA G4  | z2 B4 c2 d2 c2 B2 c2  | \
w:  Saç la rın  ta  |  rü *  mar  SAZ  |  göz le rin *  de   | 
d8 G2 B2 d4  | 
w:  nem   SAZ  | 
z2 d2 _7/8e2 f2 e2 d2 c2 d2  | _7/8e6 d2 fe ed e4  | \
w:  A te şe  ben *  zer  |  din  *  SAZ  | 
g2 a4 g2 f4 _7/8e4  | d16  | 
w:  kü le  *  dön müş  |  sün   | 
GA Bc d_7/8e fg ag2f fe ed  | d_7/8e fg ag fe d2 =ef g4  | 
w:  SAZ  |   | 
f2 g4 a2 f4 _7/8e3d  | c6 cd _7/8ed cB c4  | \
w:  Ha yal  mi  ger çek   |  mi  SAZ  | 
z2 f4 _7/8e2 d4 c4  | B6 Bc dc B^A B4  | 
w:  gör dü ğüm  bil  |  mem   SAZ  | 
z2 B4 A2 B2 c2 d2 e2  | f2 g2 =f2 e2 d2 c2 B2 A2  | \
w:  El den  e *  le   |  ge zen   | 
G2 d4 c2 B3G AB A2  | 
w:  gü le  *  dön *  müş  | 
B2 G14  | GA Bc d_7/8e fg ag2f fe ed  | \
w:  *  sün    |  SAZ  | 
d_7/8e fg ag fe d2 =ef g4  | 
w:   | 
f2 g4 a2 f4 _7/8e3d  | c6 cd _7/8ed cB c4  | \
w:  Ha yal  mi  ger çek   |  mi  SAZ  | 
z2 f4 _7/8e2 d4 c4  | B6 Bc dc B^A B4  | 
w:  gör dü ğüm  bil  |  mem   SAZ  | 
z2 B4 A2 B2 c2 d2 e2  | f2 g2 =f2 e2 d2 c2 B2 A2  | \
w:  El den  e *  le   |  ge zen   | 
G2 d4 c2 B3G AB A2  | 
w:  gü le  *  dön *  müş  | 
B2 G14  | GA Bc d_7/8e fg ag2f fe ed  | \
w:  *  sün    |  SAZ  | 
d_7/8e fg a_b ag fe fg a4  | 
w:   | 
z2 g4 a2 a4 _b2 ag  | gf f4 a_b ag fe f4  | \
w:  Bir  e ser  kal  |  ma *  mış  SAZ  | 
z2 f4 g2 a2 b2 c'2 ba  | 
w:  es ki  ha *  lin  | 
a8 c'_b ba b4  | a2 _b4 a2 b2 a2 b2 c'2  | \
w:  den   SAZ  |  Ya zık  *  geç *  mez   | 
a2 g2 f2 _7/8e2 dc d2 ed e2  | 
w:  ak *  *  *  çe   | 
g2 a4 g2 f4 _7/8e4  | d16  | GA Bc d_7/8e fg a2 gf fe ed  | 
w:  pu la  *  dön müş  |  sün    |  SAZ  | 
d_7/8e fg ag fe d2 =ef g4  | f2 g4 a2 f4 _7/8e3d  | \
w:   |  Ha yal  mi  ger çek   | 
c6 cd _7/8ed cB c4  | 
w:  mi  SAZ  | 
z2 f4 _7/8e2 d4 c4  | B6 Bc dc B^A B4  | \
w:  gör dü ğüm  bil  |  mem   SAZ  | 
z2 B4 A2 B2 c2 d2 e2  | f2 g2 =f2 e2 d2 c2 B2 A2  | 
w:  El den  e *  le   |  ge zen   | 
G2 d4 c2 B3G AB A2  | B2 G14  | |


